docs/assets/layered-waves-haikei.svg

<svg xmlns="http://www.w3.org/2000/svg" width="960" height="540" viewBox="0 0 960 540"><path fill="#336037" d="m0 210 22.8-3.2c22.9-3.1 68.5-9.5 114.2-11.6 45.7-2.2 91.3-.2 137-6 45.7-5.9 91.3-19.5 137.2-16.9C457 175 503 194 548.8 199.7c45.9 5.6 91.5-2 137.2-9.4 45.7-7.3 91.3-14.3 137-22.5 45.7-8.1 91.3-17.5 114.2-22.1L960 141V0H0Z"/><path fill="#42823f" d="m0 107 22.8 12.5C45.7 132 91.3 157 137 161.5s91.3-11.5 137-22.8c45.7-11.4 91.3-18 137.2-21.4 45.8-3.3 91.8-3.3 137.6.5 45.9 3.9 91.5 11.5 137.2 10.9 45.7-.7 91.3-9.7 137-11.9 45.7-2.1 91.3 2.5 114.2 4.9L960 124V0H0Z"/><path fill="#56a644" d="m0 124 22.8-.2c22.9-.1 68.5-.5 114.2.7s91.3 3.8 137 4.2c45.7.3 91.3-1.7 137.2-2.2 45.8-.5 91.8.5 137.6-.5 45.9-1 91.5-4 137.2-6.5 45.7-2.5 91.3-4.5 137-2.3 45.7 2.1 91.3 8.5 114.2 11.6L960 132V0H0Z"/><path fill="#70cb44" d="m0 81 22.8-.7c22.9-.6 68.5-2 114.2-.1 45.7 1.8 91.3 6.8 137 8.3 45.7 1.5 91.3-.5 137.2-.7 45.8-.1 91.8 1.5 137.6 1.7 45.9.2 91.5-1.2 137.2-7.7 45.7-6.5 91.3-18.1 137-17.5 45.7.7 91.3 13.7 114.2 20.2L960 91V0H0Z"/><path fill="#8ff03f" d="m0 47 22.8-3.3c22.9-3.4 68.5-10 114.2-10.2 45.7-.2 91.3 6.2 137 9.8 45.7 3.7 91.3 4.7 137.2 5.4 45.8.6 91.8 1 137.6-3.2 45.9-4.2 91.5-12.8 137.2-11.7C731.7 35 777.3 46 823 47.3c45.7 1.4 91.3-7 114.2-11.1L960 32V0H0Z"/></svg>

<svg xmlns="http://www.w3.org/2000/svg" xmlns:xlink="http://www.w3.org/1999/xlink" id="visual" width="960" height="540" version="1.1" viewBox="0 0 960 540"><path fill="#336037" d="M0 210L22.8 206.8C45.7 203.7 91.3 197.3 137 195.2C182.7 193 228.3 195 274 189.2C319.7 183.3 365.3 169.7 411.2 172.3C457 175 503 194 548.8 199.7C594.7 205.3 640.3 197.7 686 190.3C731.7 183 777.3 176 823 167.8C868.7 159.7 914.3 150.3 937.2 145.7L960 141L960 0L937.2 0C914.3 0 868.7 0 823 0C777.3 0 731.7 0 686 0C640.3 0 594.7 0 548.8 0C503 0 457 0 411.2 0C365.3 0 319.7 0 274 0C228.3 0 182.7 0 137 0C91.3 0 45.7 0 22.8 0L0 0Z"/><path fill="#42823f" d="M0 107L22.8 119.5C45.7 132 91.3 157 137 161.5C182.7 166 228.3 150 274 138.7C319.7 127.3 365.3 120.7 411.2 117.3C457 114 503 114 548.8 117.8C594.7 121.7 640.3 129.3 686 128.7C731.7 128 777.3 119 823 116.8C868.7 114.7 914.3 119.3 937.2 121.7L960 124L960 0L937.2 0C914.3 0 868.7 0 823 0C777.3 0 731.7 0 686 0C640.3 0 594.7 0 548.8 0C503 0 457 0 411.2 0C365.3 0 319.7 0 274 0C228.3 0 182.7 0 137 0C91.3 0 45.7 0 22.8 0L0 0Z"/><path fill="#56a644" d="M0 124L22.8 123.8C45.7 123.7 91.3 123.3 137 124.5C182.7 125.7 228.3 128.3 274 128.7C319.7 129 365.3 127 411.2 126.5C457 126 503 127 548.8 126C594.7 125 640.3 122 686 119.5C731.7 117 777.3 115 823 117.2C868.7 119.3 914.3 125.7 937.2 128.8L960 132L960 0L937.2 0C914.3 0 868.7 0 823 0C777.3 0 731.7 0 686 0C640.3 0 594.7 0 548.8 0C503 0 457 0 411.2 0C365.3 0 319.7 0 274 0C228.3 0 182.7 0 137 0C91.3 0 45.7 0 22.8 0L0 0Z"/><path fill="#70cb44" d="M0 81L22.8 80.3C45.7 79.7 91.3 78.3 137 80.2C182.7 82 228.3 87 274 88.5C319.7 90 365.3 88 411.2 87.8C457 87.7 503 89.3 548.8 89.5C594.7 89.7 640.3 88.3 686 81.8C731.7 75.3 777.3 63.7 823 64.3C868.7 65 914.3 78 937.2 84.5L960 91L960 0L937.2 0C914.3 0 868.7 0 823 0C777.3 0 731.7 0 686 0C640.3 0 594.7 0 548.8 0C503 0 457 0 411.2 0C365.3 0 319.7 0 274 0C228.3 0 182.7 0 137 0C91.3 0 45.7 0 22.8 0L0 0Z"/><path fill="#8ff03f" d="M0 47L22.8 43.7C45.7 40.3 91.3 33.7 137 33.5C182.7 33.3 228.3 39.7 274 43.3C319.7 47 365.3 48 411.2 48.7C457 49.3 503 49.7 548.8 45.5C594.7 41.3 640.3 32.7 686 33.8C731.7 35 777.3 46 823 47.3C868.7 48.7 914.3 40.3 937.2 36.2L960 32L960 0L937.2 0C914.3 0 868.7 0 823 0C777.3 0 731.7 0 686 0C640.3 0 594.7 0 548.8 0C503 0 457 0 411.2 0C365.3 0 319.7 0 274 0C228.3 0 182.7 0 137 0C91.3 0 45.7 0 22.8 0L0 0Z"/></svg>
